src/assets/duotone/EmojiNormal.svg

<svg width="24" height="24" viewBox="0 0 24 24"  xmlns="http://www.w3.org/2000/svg">
<path opacity="0.4" d="M16.19 2H7.81C4.17 2 2 4.17 2 7.81V16.18C2 19.83 4.17 22 7.81 22H16.18C19.82 22 21.99 19.83 21.99 16.19V7.81C22 4.17 19.83 2 16.19 2Z" />
<path d="M8.81994 9.75043C7.96994 9.75043 7.11994 9.43043 6.46994 8.78043C6.17994 8.49043 6.17994 8.01043 6.46994 7.72043C6.75994 7.43043 7.23994 7.43043 7.52994 7.72043C8.23994 8.43043 9.39994 8.43043 10.1099 7.72043C10.3999 7.43043 10.8799 7.43043 11.1699 7.72043C11.4599 8.01043 11.4599 8.49043 11.1699 8.78043C10.5199 9.42043 9.66994 9.75043 8.81994 9.75043Z" />
<path d="M15.1798 9.75043C14.3298 9.75043 13.4798 9.43043 12.8298 8.78043C12.5398 8.49043 12.5398 8.01043 12.8298 7.72043C13.1198 7.43043 13.5998 7.43043 13.8898 7.72043C14.5998 8.43043 15.7598 8.43043 16.4698 7.72043C16.7598 7.43043 17.2398 7.43043 17.5298 7.72043C17.8198 8.01043 17.8198 8.49043 17.5298 8.78043C16.8798 9.42043 16.0298 9.75043 15.1798 9.75043Z" />
<path d="M15.5999 12.6201H8.39988C7.69988 12.6201 7.12988 13.1901 7.12988 13.9001C7.12988 16.5901 9.31988 18.7801 12.0099 18.7801C14.6999 18.7801 16.8899 16.5901 16.8899 13.9001C16.8799 13.2001 16.2999 12.6201 15.5999 12.6201Z" />
</svg>

<?xml version="1.0" encoding="UTF-8"?>
<svg width="24" height="24" viewBox="0 0 24 24" xmlns="http://www.w3.org/2000/svg">
 <path d="M16.19 2H7.81C4.17 2 2 4.17 2 7.81V16.18C2 19.83 4.17 22 7.81 22H16.18C19.82 22 21.99 19.83 21.99 16.19V7.81C22 4.17 19.83 2 16.19 2Z" opacity=".4"/>
 <path d="m8.8199 9.7504c-0.85 0-1.7-0.32-2.35-0.97-0.29-0.29-0.29-0.77 0-1.06s0.77-0.29 1.06 0c0.71 0.71 1.87 0.71 2.58 0 0.29-0.29 0.77-0.29 1.06 0s0.29 0.77 0 1.06c-0.65 0.64-1.5 0.97-2.35 0.97z"/>
 <path d="m15.18 9.7504c-0.85 0-1.7-0.32-2.35-0.97-0.29-0.29-0.29-0.77 0-1.06s0.77-0.29 1.06 0c0.71 0.71 1.87 0.71 2.58 0 0.29-0.29 0.77-0.29 1.06 0s0.29 0.77 0 1.06c-0.65 0.64-1.5 0.97-2.35 0.97z"/>
 <path d="m15.6 12.62h-7.2c-0.7 0-1.27 0.57-1.27 1.28 0 2.69 2.19 4.88 4.88 4.88 2.69 0 4.88-2.19 4.88-4.88-0.01-0.7-0.59-1.28-1.29-1.28z"/>
</svg>
